public/icons/stratagems/General Stratagems/Orbital Illumination Flare.svg

<svg id="Orbital_Illumination_Flare" data-name="Orbital Illumination Flare" xmlns="http://www.w3.org/2000/svg" xmlns:xlink="http://www.w3.org/1999/xlink" viewBox="0 0 126 126">
  <defs>
    <style>
      .cls-1 {
        fill: #c9b269;
      }

      .cls-1, .cls-3 {
        fill-rule: evenodd;
      }

      .cls-2, .cls-3 {
        fill: #fff;
      }
    </style>
  </defs>
  <path class="cls-1" d="M4,122V102l20,20H4Zm118,0V102l-20,20h20ZM122,4V24L102,4h20ZM4,4V24L24,4H4Z"/>
  <g>
    <circle class="cls-2" cx="63" cy="63" r="12"/>
    <path id="left_middle_copy" data-name="left middle copy" class="cls-3" d="M43.818,84.7l-0.707-.707L41.7,82.577,40.99,81.87l9.192-9.192,0.707,0.707L52.3,74.8l0.707,0.707Z"/>
    <path id="left_middle_copy_2" data-name="left middle copy 2" class="cls-3" d="M85.01,82.182l-0.707.707L82.889,84.3l-0.707.707L72.99,75.818l0.707-.707L75.111,73.7l0.707-.707Z"/>
    <path id="left_middle_copy_3" data-name="left middle copy 3" class="cls-3" d="M43.818,41.295L43.111,42,41.7,43.412l-0.707.706,9.192,9.174,0.707-.706L52.3,51.175l0.707-.706Z"/>
    <path id="left_middle_copy_4" data-name="left middle copy 4" class="cls-3" d="M85.01,43.812L84.3,43.107,82.889,41.7l-0.707-.706L72.99,50.164,73.7,50.869l1.414,1.411,0.707,0.706Z"/>
    <g id="left_middle" data-name="left middle">
      <path id="left_middle-2" data-name="left middle" class="cls-3" d="M15,65V61H47v4H15Z"/>
    </g>
    <g id="right_middle" data-name="right middle">
      <rect class="cls-2" x="79" y="61" width="32" height="3"/>
      <rect id="Rectangle_8_copy_3" data-name="Rectangle 8 copy 3" class="cls-2" x="79" y="62" width="32" height="3"/>
    </g>
    <g id="bottom">
      <rect id="left_middle-3" data-name="left middle" class="cls-2" x="61" y="79" width="3" height="21"/>
      <rect id="left_middle-4" data-name="left middle" class="cls-2" x="62" y="79" width="3" height="21"/>
    </g>
    <g id="top">
      <rect class="cls-2" x="61" y="26" width="3" height="21"/>
      <rect id="Rectangle_8_copy_3-2" data-name="Rectangle 8 copy 3" class="cls-2" x="62" y="26" width="3" height="21"/>
    </g>
  </g>
</svg>

<svg xmlns="http://www.w3.org/2000/svg" viewBox="0 0 126 126" fill="#fff">
<path fill="#c9b269" d="M4 122v-20l20 20H4Zm118 0v-20l-20 20h20Zm0-118v20L102 4h20ZM4 4v20L24 4H4Z"/>
<circle cx="63" cy="63" r="12"/>
<path d="m43.8 84.7-.7-.7-1.4-1.4-.7-.7 9.2-9.2.7.7 1.4 1.4.7.7Z"/>
<path d="m85 82.2-.7.7-1.4 1.4-.7.7-9.2-9.2.7-.7 1.4-1.4.7-.7Z"/>
<path d="m43.8 41.3-.7.7-1.4 1.4-.7.7 9.2 9.2.7-.7 1.4-1.4.7-.7Z"/>
<path d="m85 43.8-.7-.7-1.4-1.4-.7-.7-9.2 9.2.7.7 1.4 1.4.7.7Z"/>
<path d="M15 65v-4h32v4H15Z"/>
<path d="M79 61h32v3H79z"/>
<path d="M79 62h32v3H79z"/>
<path d="M61 79h3v21h-3z"/>
<path d="M62 79h3v21h-3z"/>
<path d="M61 26h3v21h-3z"/>
<path d="M62 26h3v21h-3z"/>
</svg>
